X:1
T:Waldo, 10.10.10.10
T:Waldo, 10.10.10.10
T:Anonymous, 1855
T:Public Domain Courtesy of the Cyber Hymnal™
C:Anonymous, 1855
Z:Public Domain
Z:Courtesy of the Cyber Hymnal™
%%score ( 1 2 ) ( 3 4 )
L:1/8
M:2/2
K:A
V:1 treble 
V:2 treble 
V:3 bass 
V:4 bass 
V:1
 [CA]4 [CA]2 [CA]2 | [EB]4 [EB]4 | [Ec]2 [EB]2 [EA]2 [Ec]2 | [EB]8 | [CA]4 [CA]2 [EA]2 | %5
 [EB]4 [EB]4 | [Ec]2 [EB]2 [EA]2 [DG]2 | [CA]8 | [EB]4 [EB]2 [EB]2 | [Ec]4 [^DB]4 | %10
 E2 [EA]2 [EG]2 [^DF]2 | E8 x6 | [CA]4 [CA]2 [EA]2 | [EB]4 [EB]4 | [Ec]2 [FB]2 [EA]2 [DG]2 | %15
 [CA]8 |] %16
V:2
 x8 | x8 | x8 | x8 | x8 | x8 | x8 | x8 | x8 | x8 | E2 x6 | E8 x6 | x8 | x8 | x8 | x8 |] %16
V:3
 A,4 A,2 A,2 | [E,G,]4 [E,G,]4 | A,2 [E,A,]2 [C,A,]2 [A,,A,]2 | [E,G,]8 | %4
 [A,,A,]4 [A,,A,]2 [C,A,]2 | [E,G,]4 [E,G,]4 | A,2 [D,D]2 [E,C]2 [E,B,]2 | [A,,A,]8 | %8
 [E,G,]4 [E,G,]2 [E,G,]2 | [A,,A,]4 [B,,F,]4 | [C,E,]2 [A,,C]2 [B,,B,]2 [B,,A,]2 | z2 x12 | %12
 [A,,A,]4 [A,,A,]2 [C,A,]2 | [E,G,]4 [E,G,]4 | A,2 [D,D]2 [E,C]2 [E,B,]2 | [A,,A,]8 |] %16
V:4
 A,4 A,2 A,2 | x8 | A,2 x6 | x8 | x8 | x8 | A,2 x6 | x8 | x8 | x8 | x8 | [E,G,]8 (D,2 C,2 B,,2) | %12
 x8 | x8 | A,2 x6 | x8 |] %16

